assets/svg/icon_profile_editbg.svg

<svg width="24" height="24" viewBox="0 0 24 24" fill="none" xmlns="http://www.w3.org/2000/svg">
<g id="icon/profile_editbg">
<path id="Vector" d="M21 12.4501H21.6C21.6 12.2388 21.4888 12.0431 21.3073 11.9348L21 12.4501ZM12 3.6C12.3314 3.6 12.6 3.33137 12.6 3C12.6 2.66863 12.3314 2.4 12 2.4V3.6ZM19.4637 11.5338L19.7711 11.0185L19.7628 11.0136L19.7545 11.009L19.4637 11.5338ZM15.5 12.5L15.0757 12.0757L15.0659 12.0856L15.0565 12.0958L15.5 12.5ZM12.7762 15.4887L13.2004 15.913L13.2102 15.9032L13.2196 15.8929L12.7762 15.4887ZM10.4684 15.6886L10.1234 16.1795L10.1234 16.1795L10.4684 15.6886ZM10.2 15.5L10.545 15.0091L10.545 15.0091L10.2 15.5ZM6.84132 15.7021L7.19517 16.1867L7.21992 16.1686L7.2427 16.1481L6.84132 15.7021ZM3.54614 17.3656C3.27854 17.561 3.22002 17.9364 3.41545 18.204C3.61088 18.4716 3.98625 18.5301 4.25385 18.3347L3.54614 17.3656ZM12 21.6C14.1044 21.6 15.743 21.6013 17.0177 21.4299C18.3096 21.2562 19.3172 20.8953 20.1062 20.1062L19.2577 19.2577C18.7288 19.7867 18.0167 20.0848 16.8578 20.2406C15.6816 20.3987 14.1383 20.4 12 20.4V21.6ZM20.4 12.4501C20.4 14.5916 20.3984 16.0165 20.2417 17.0749C20.0906 18.0958 19.8032 18.7122 19.2577 19.2577L20.1062 20.1062C20.8787 19.3338 21.2504 18.4555 21.4288 17.2507C21.6016 16.0833 21.6 14.5513 21.6 12.4501H20.4ZM2.4 12C2.4 14.1044 2.39873 15.743 2.5701 17.0177C2.7438 18.3096 3.10468 19.3172 3.89376 20.1062L4.74228 19.2577C4.21334 18.7288 3.91521 18.0167 3.7594 16.8578C3.60127 15.6816 3.6 14.1383 3.6 12H2.4ZM12 20.4C9.86172 20.4 8.31837 20.3987 7.14223 20.2406C5.98335 20.0848 5.27123 19.7867 4.74228 19.2577L3.89376 20.1062C4.68283 20.8953 5.69038 21.2562 6.98233 21.4299C8.25701 21.6013 9.89564 21.6 12 21.6V20.4ZM12 2.4C9.89564 2.4 8.25701 2.39873 6.98233 2.5701C5.69038 2.7438 4.68283 3.10468 3.89376 3.89376L4.74228 4.74228C5.27123 4.21334 5.98335 3.91521 7.14223 3.7594C8.31837 3.60127 9.86172 3.6 12 3.6V2.4ZM3.6 12C3.6 9.86172 3.60127 8.31837 3.7594 7.14223C3.91521 5.98335 4.21334 5.27123 4.74228 4.74228L3.89376 3.89376C3.10468 4.68283 2.7438 5.69038 2.5701 6.98233C2.39873 8.25701 2.4 9.89564 2.4 12H3.6ZM6 8.4C6 9.72548 7.07452 10.8 8.4 10.8V9.6C7.73726 9.6 7.2 9.06274 7.2 8.4H6ZM8.4 10.8C9.72548 10.8 10.8 9.72548 10.8 8.4H9.6C9.6 9.06274 9.06274 9.6 8.4 9.6V10.8ZM10.8 8.4C10.8 7.07452 9.72548 6 8.4 6V7.2C9.06274 7.2 9.6 7.73726 9.6 8.4H10.8ZM8.4 6C7.07452 6 6 7.07452 6 8.4H7.2C7.2 7.73726 7.73726 7.2 8.4 7.2V6ZM21.3073 11.9348L19.7711 11.0185L19.1564 12.0491L20.6927 12.9654L21.3073 11.9348ZM15.0565 12.0958L12.3327 15.0846L13.2196 15.8929L15.9435 12.9042L15.0565 12.0958ZM10.8134 15.1977L10.545 15.0091L9.855 15.9909L10.1234 16.1795L10.8134 15.1977ZM6.48746 15.2176L3.54614 17.3656L4.25385 18.3347L7.19517 16.1867L6.48746 15.2176ZM10.545 15.0091C9.28633 14.1245 7.58343 14.227 6.43994 15.2562L7.2427 16.1481C7.97037 15.4932 9.05404 15.428 9.85501 15.9909L10.545 15.0091ZM12.3519 15.0645C11.9395 15.4768 11.2905 15.533 10.8134 15.1977L10.1234 16.1795C11.0776 16.8501 12.3757 16.7377 13.2004 15.913L12.3519 15.0645ZM19.7545 11.009C18.5265 10.3288 16.7394 10.4121 15.0757 12.0757L15.9243 12.9243C17.2606 11.5879 18.4735 11.6712 19.173 12.0587L19.7545 11.009Z" fill="#0E0E0E"/>
<path id="Vector_2" d="M18.4396 0.610146L14.898 4.15167C14.707 4.34248 14.5742 4.47548 14.4579 4.6246C14.3211 4.79978 14.204 4.98935 14.1085 5.19008C14.0271 5.3608 13.9678 5.53895 13.8824 5.79527L13.3646 7.34855C13.243 7.71329 13.3381 8.11551 13.6098 8.38721C13.8815 8.65915 14.2837 8.75394 14.6484 8.63236L16.2017 8.11452C16.4578 8.02916 16.6362 7.96986 16.8066 7.88847C17.0074 7.79294 17.1969 7.67558 17.3721 7.53911C17.5212 7.42274 17.654 7.28999 17.845 7.09893L21.3866 3.5574C22.2004 2.74355 22.2004 1.424 21.3866 0.610394C20.5727 -0.203465 19.2534 -0.203465 18.4396 0.610394V0.610146ZM16.993 6.19649C16.7679 6.42154 16.691 6.49697 16.6094 6.56049C16.5052 6.64188 16.3925 6.71135 16.2732 6.76817C16.1799 6.81259 16.0781 6.84758 15.7759 6.94832L14.9184 7.23416L14.7623 7.07809L15.0481 6.22056C15.1489 5.91859 15.1839 5.81661 15.2283 5.72331C15.2851 5.60396 15.3548 5.49131 15.436 5.3871C15.4995 5.30571 15.5749 5.22879 15.8 5.00349L18.2696 2.53388C18.3932 2.75422 18.5596 2.98746 18.7842 3.21201C19.0088 3.43657 19.242 3.60306 19.4623 3.72663L16.9927 6.19624L16.993 6.19649ZM20.5094 2.68003L20.4005 2.78895C20.3871 2.78474 20.3732 2.78002 20.3591 2.77506C20.1643 2.70732 19.906 2.57904 19.6618 2.33488C19.4177 2.09097 19.2894 1.83267 19.2217 1.63764C19.2167 1.6235 19.2122 1.6096 19.2078 1.5962L19.3167 1.48728C19.6459 1.15801 20.1799 1.15801 20.5092 1.48728C20.8385 1.81654 20.8385 2.35051 20.5092 2.67978L20.5094 2.68003Z" fill="#0E0E0E"/>
</g>
</svg>

<svg xmlns="http://www.w3.org/2000/svg" width="24" height="24" fill="none"><g fill="#0E0E0E"><path d="M21 12.45h.6a.6.6 0 0 0-.293-.515zM12 3.6a.6.6 0 1 0 0-1.2zm7.464 7.934.307-.516-.008-.004-.009-.005zM15.5 12.5l-.424-.424-.01.01-.01.01zm-2.724 2.989.424.424.01-.01.01-.01zm-2.308.2-.345.49zM10.2 15.5l.345-.49zm-3.359.202.354.485.025-.018.023-.02zm-3.295 1.664a.6.6 0 0 0 .708.969zM12 21.6c2.104 0 3.743.001 5.018-.17 1.292-.174 2.3-.535 3.088-1.324l-.848-.848c-.53.529-1.241.827-2.4.983-1.176.158-2.72.159-4.858.159zm8.4-9.15c0 2.142-.002 3.567-.158 4.625-.151 1.02-.439 1.637-.984 2.183l.848.848c.773-.772 1.144-1.65 1.323-2.855.173-1.168.171-2.7.171-4.8zM2.4 12c0 2.104-.001 3.743.17 5.018.174 1.292.535 2.3 1.324 3.088l.848-.848c-.529-.53-.827-1.241-.983-2.4C3.601 15.682 3.6 14.138 3.6 12zm9.6 8.4c-2.138 0-3.682-.001-4.858-.16-1.159-.155-1.87-.453-2.4-.982l-.848.848c.789.79 1.796 1.15 3.088 1.324 1.275.171 2.914.17 5.018.17zm0-18c-2.104 0-3.743-.001-5.018.17-1.292.174-2.3.535-3.088 1.324l.848.848c.53-.529 1.241-.827 2.4-.983C8.318 3.601 9.862 3.6 12 3.6zM3.6 12c0-2.138.001-3.682.16-4.858.155-1.159.453-1.87.982-2.4l-.848-.848c-.79.789-1.15 1.796-1.324 3.088C2.4 8.257 2.4 9.896 2.4 12zM6 8.4a2.4 2.4 0 0 0 2.4 2.4V9.6a1.2 1.2 0 0 1-1.2-1.2zm2.4 2.4a2.4 2.4 0 0 0 2.4-2.4H9.6a1.2 1.2 0 0 1-1.2 1.2zm2.4-2.4A2.4 2.4 0 0 0 8.4 6v1.2a1.2 1.2 0 0 1 1.2 1.2zM8.4 6A2.4 2.4 0 0 0 6 8.4h1.2a1.2 1.2 0 0 1 1.2-1.2zm12.907 5.935-1.536-.917-.615 1.031 1.537.916zm-6.25.16-2.724 2.99.887.808 2.723-2.989zm-4.244 3.103-.268-.189-.69.982.268.189zm-4.326.02-2.94 2.148.707.969 2.941-2.148zm4.058-.209a3.3 3.3 0 0 0-4.105.247l.803.892a2.1 2.1 0 0 1 2.612-.157zm1.807.056a1.2 1.2 0 0 1-1.539.133l-.69.982a2.4 2.4 0 0 0 3.077-.267zm7.403-4.056c-1.229-.68-3.016-.597-4.68 1.067l.85.848c1.336-1.336 2.549-1.253 3.248-.865zM18.44.61l-3.542 3.542a5 5 0 0 0-.44.473 3 3 0 0 0-.35.565c-.08.17-.14.349-.226.605l-.517 1.554a1.015 1.015 0 0 0 1.283 1.283l1.554-.517c.256-.086.434-.145.605-.227q.301-.143.565-.349c.15-.116.282-.249.473-.44l3.542-3.542A2.084 2.084 0 1 0 18.44.61m-1.447 5.586c-.225.226-.302.301-.384.364a1.8 1.8 0 0 1-.336.208 5 5 0 0 1-.497.18l-.858.286-.156-.156.286-.857c.1-.302.136-.404.18-.498q.086-.18.208-.336c.063-.081.139-.158.364-.384l2.47-2.47a3.1 3.1 0 0 0 1.192 1.194zm3.516-3.516-.108.109-.042-.014a1.84 1.84 0 0 1-.697-.44 1.8 1.8 0 0 1-.44-.697l-.014-.042.109-.109a.843.843 0 0 1 1.192 1.193"/></g></svg>
